X: 8305
T: Corona Air
R: waltz
M: 3/4
K: Adorian
M:4/4
A2DA {A/}G<E Jc2-|Jc8-|!>!c8|z4zd/e/{e/}d2-|d3 JA3-A2-|A8-|!>!A2z6|
z2z/ADA {A}G/E2|Jc8-|c8|z3de2{a}e{de}d-|d3{a}d/c/{a}d4-|!>!d8|
z3z2J{a}g3-|g3-g2Je3|f/e/Jc3-c4-|!>!c6z2|zJA3{c}A|G>ED6-|!>!D8|z8|
A/JA/D2AJG{A}G{A}GE/|Jc8-|c8-|!>!c2z6|{A}EDJE2{A}E{A}E2{A}E|D3-D2{A}D3-|!>!D2z6|
AdaJg{a}geJc'2-|c'8-|!>!c'2z3Je'd'2|Ja8-|!>!a2z4{c}A2|d/a/Jg{a}g/e/Jc'4-|!>!c'8|
z2dJe/{a}e/d/c/{e}d3-|!>!d6z2|zJ{a}fJg3{a}g4|!>!Je4dJc3-|c4z/JA/{c}A3-|
A2{c}AGED3-|D6z2|Adag{a}g eJc'2-|c'6z2|deg{a}e3{a}e2|!>!d6z2|
z2G/c/a/Jg/{a}g/e/Jc3-|c6z2|JA4{c}A2{c}AG|E8-|!>!E2D6-|D8-|D8|

